(1001)
(NixiTube)
(T1  D=2 CR=0 - ZMIN=-10 - flat end mill)
G90 G94
G17
G21
G28 G91 Z0
G90

(2D Pocket1)
T1 M6
S5000 M3
G54
M8
G0 X52.59 Y46.153
Z15
Z5
G1 Z2.7 F300
X52.57 Y46.169 Z2.602 F333.3
X52.514 Y46.212 Z2.529
X52.433 Y46.264 Z2.5
G3 X51.493 Y44.613 Z2.396 I-0.47 J-0.826
X52.433 Y46.264 Z2.292 I0.47 J0.826
X51.493 Y44.613 Z2.187 I-0.47 J-0.826
X52.433 Y46.264 Z2.083 I0.47 J0.826
X51.493 Y44.613 Z1.979 I-0.47 J-0.826
X52.433 Y46.264 Z1.875 I0.47 J0.826
X51.493 Y44.613 Z1.77 I-0.47 J-0.826
X52.433 Y46.264 Z1.666 I0.47 J0.826
X51.493 Y44.613 Z1.562 I-0.47 J-0.826
X52.433 Y46.264 Z1.458 I0.47 J0.826
X51.493 Y44.613 Z1.354 I-0.47 J-0.826
X52.433 Y46.264 Z1.249 I0.47 J0.826
X51.493 Y44.613 Z1.145 I-0.47 J-0.826
X52.433 Y46.264 Z1.041 I0.47 J0.826
X51.493 Y44.613 Z0.937 I-0.47 J-0.826
X52.433 Y46.264 Z0.832 I0.47 J0.826
X51.493 Y44.613 Z0.728 I-0.47 J-0.826
X52.433 Y46.264 Z0.624 I0.47 J0.826
X51.493 Y44.613 Z0.52 I-0.47 J-0.826
X52.433 Y46.264 Z0.416 I0.47 J0.826
X51.493 Y44.613 Z0.311 I-0.47 J-0.826
X52.433 Y46.264 Z0.207 I0.47 J0.826
X51.493 Y44.613 Z0.103 I-0.47 J-0.826
X52.433 Y46.264 Z-0.001 I0.47 J0.826
X51.493 Y44.613 Z-0.106 I-0.47 J-0.826
X52.433 Y46.264 Z-0.21 I0.47 J0.826
X51.493 Y44.613 Z-0.314 I-0.47 J-0.826
X52.433 Y46.264 Z-0.418 I0.47 J0.826
X51.493 Y44.613 Z-0.522 I-0.47 J-0.826
X52.433 Y46.264 Z-0.627 I0.47 J0.826
X51.493 Y44.613 Z-0.731 I-0.47 J-0.826
X52.433 Y46.264 Z-0.835 I0.47 J0.826
X51.493 Y44.613 Z-0.939 I-0.47 J-0.826
X52.433 Y46.264 Z-1.044 I0.47 J0.826
X51.493 Y44.613 Z-1.148 I-0.47 J-0.826
X52.433 Y46.264 Z-1.252 I0.47 J0.826
X51.493 Y44.613 Z-1.356 I-0.47 J-0.826
X52.433 Y46.264 Z-1.46 I0.47 J0.826
X51.493 Y44.613 Z-1.565 I-0.47 J-0.826
X52.433 Y46.264 Z-1.669 I0.47 J0.826
X51.493 Y44.613 Z-1.773 I-0.47 J-0.826
X52.433 Y46.264 Z-1.877 I0.47 J0.826
X51.493 Y44.613 Z-1.982 I-0.47 J-0.826
X52.433 Y46.264 Z-2.086 I0.47 J0.826
X51.493 Y44.613 Z-2.19 I-0.47 J-0.826
X52.433 Y46.264 Z-2.294 I0.47 J0.826
X51.493 Y44.613 Z-2.398 I-0.47 J-0.826
X52.433 Y46.264 Z-2.503 I0.47 J0.826
X51.493 Y44.613 Z-2.607 I-0.47 J-0.826
X52.433 Y46.264 Z-2.711 I0.47 J0.826
X51.493 Y44.613 Z-2.815 I-0.47 J-0.826
X52.433 Y46.264 Z-2.92 I0.47 J0.826
X51.493 Y44.613 Z-3.024 I-0.47 J-0.826
X52.433 Y46.264 Z-3.128 I0.47 J0.826
X51.493 Y44.613 Z-3.232 I-0.47 J-0.826
X52.433 Y46.264 Z-3.336 I0.47 J0.826
X51.493 Y44.613 Z-3.441 I-0.47 J-0.826
X52.433 Y46.264 Z-3.545 I0.47 J0.826
X51.493 Y44.613 Z-3.649 I-0.47 J-0.826
X52.433 Y46.264 Z-3.753 I0.47 J0.826
X51.493 Y44.613 Z-3.858 I-0.47 J-0.826
X52.433 Y46.264 Z-3.962 I0.47 J0.826
X51.493 Y44.613 Z-4.066 I-0.47 J-0.826
X52.433 Y46.264 Z-4.17 I0.47 J0.826
X51.493 Y44.613 Z-4.274 I-0.47 J-0.826
X52.433 Y46.264 Z-4.379 I0.47 J0.826
X51.493 Y44.613 Z-4.483 I-0.47 J-0.826
X51.963 Y44.489 Z-4.5 I0.47 J0.826
G1 X114.35 F300
G3 X114.669 Y44.808 I0 J0.319
G1 Y44.994
G3 X114.35 Y45.313 I-0.319 J0
G1 X51.87
G3 X51.551 Y44.994 I0 J-0.319
G1 Y44.808
G3 X51.87 Y44.489 I0.319 J0
G1 X51.963
G2 X52.598 Y44.065 I0 J-0.688
G3 X53.234 Y43.641 I0.635 J0.265
G1 X115.197
G3 X115.516 Y43.961 I0 J0.319
G1 Y45.841
G3 X115.197 Y46.161 I-0.319 J0
G1 X51.023
G3 X50.703 Y45.841 I0 J-0.319
G1 Y43.961
G3 X51.023 Y43.641 I0.319 J0
G1 X53.234
G2 X54.407 Y42.859 I0 J-1.271
G3 X55.58 Y42.077 I1.173 J0.489
G1 X116.761
G3 X117.081 Y42.396 I0 J0.319
G1 Y47.406
G3 X116.761 Y47.725 I-0.319 J0
G1 X49.458
G3 X49.139 Y47.406 I0 J-0.319
G1 Y42.396
G3 X49.458 Y42.077 I0.319 J0
G1 X55.58
G2 X56.754 Y41.295 I0 J-1.271
G3 X57.927 Y40.513 I1.173 J0.489
G1 X118.326
G3 X118.645 Y40.832 I0 J0.319
G1 Y48.97
G3 X118.326 Y49.289 I-0.319 J0
G1 X47.894
G3 X47.574 Y48.97 I0 J-0.319
G1 Y40.832
G3 X47.894 Y40.513 I0.319 J0
G1 X57.927
G2 X59.1 Y39.73 I0 J-1.271
G3 X60.274 Y38.948 I1.173 J0.489
G1 X119.89
G3 X120.21 Y39.267 I0 J0.319
G1 Y50.535
G3 X119.89 Y50.854 I-0.319 J0
G1 X46.329
G3 X46.01 Y50.535 I0 J-0.319
G1 Y39.267
G3 X46.329 Y38.948 I0.319 J0
G1 X60.274
G2 X61.447 Y38.166 I0 J-1.271
G3 X62.62 Y37.384 I1.173 J0.489
G1 X121.455
G3 X121.774 Y37.703 I0 J0.319
G1 Y52.099
G3 X121.455 Y52.418 I-0.319 J0
G1 X44.765
G3 X44.446 Y52.099 I0 J-0.319
G1 Y37.703
G3 X44.765 Y37.384 I0.319 J0
G1 X62.62
G2 X63.794 Y36.601 I0 J-1.271
G3 X64.967 Y35.819 I1.173 J0.489
G1 X123.019
G3 X123.339 Y36.139 I0 J0.319
G1 Y53.663
G3 X123.019 Y53.983 I-0.319 J0
G1 X43.2
G3 X42.881 Y53.663 I0 J-0.319
G1 Y36.139
G3 X43.2 Y35.819 I0.319 J0
G1 X64.967
G2 X66.14 Y35.037 I0 J-1.271
G3 X67.314 Y34.255 I1.173 J0.489
G1 X124.584
G3 X124.903 Y34.574 I0 J0.319
G1 Y55.228
G3 X124.584 Y55.547 I-0.319 J0
G1 X41.636
G3 X41.317 Y55.228 I0 J-0.319
G1 Y34.574
G3 X41.636 Y34.255 I0.319 J0
G1 X67.314
G2 X68.487 Y33.473 I0 J-1.271
G3 X69.66 Y32.69 I1.173 J0.489
G1 X126.148
G3 X126.467 Y33.01 I0 J0.319
G1 Y56.792
G3 X126.148 Y57.112 I-0.319 J0
G1 X40.072
G3 X39.752 Y56.792 I0 J-0.319
G1 Y33.01
G3 X40.072 Y32.69 I0.319 J0
G1 X69.66
G2 X70.834 Y31.908 I0 J-1.271
G3 X72.007 Y31.126 I1.173 J0.489
G1 X127.713
G3 X128.032 Y31.445 I0 J0.319
G1 Y58.357
G3 X127.713 Y58.676 I-0.319 J0
G1 X38.507
G3 X38.188 Y58.357 I0 J-0.319
G1 Y31.445
G3 X38.507 Y31.126 I0.319 J0
G1 X72.007
G2 X73.18 Y30.344 I0 J-1.271
G3 X74.354 Y29.562 I1.173 J0.489
G1 X129.277
G3 X129.596 Y29.881 I0 J0.319
G1 Y59.921
G3 X129.277 Y60.24 I-0.319 J0
G1 X36.943
G3 X36.623 Y59.921 I0 J-0.319
G1 Y29.881
G3 X36.943 Y29.562 I0.319 J0
G1 X74.354
G2 X75.527 Y28.779 I0 J-1.271
G3 X76.7 Y27.997 I1.173 J0.489
G1 X130.841
G3 X131.161 Y28.316 I0 J0.319
G1 Y61.486
G3 X130.841 Y61.805 I-0.319 J0
G1 X35.378
G3 X35.059 Y61.486 I0 J-0.319
G1 Y28.316
G3 X35.378 Y27.997 I0.319 J0
G1 X76.7
G2 X77.874 Y27.215 I0 J-1.271
G3 X79.047 Y26.433 I1.173 J0.489
G1 X132.406
G3 X132.725 Y26.752 I0 J0.319
G1 Y63.05
G3 X132.406 Y63.369 I-0.319 J0
G1 X33.814
G3 X33.495 Y63.05 I0 J-0.319
G1 Y26.752
G3 X33.814 Y26.433 I0.319 J0
G1 X79.047
G2 X80.22 Y25.65 I0 J-1.271
G3 X81.394 Y24.868 I1.173 J0.489
G1 X133.97
G3 X134.29 Y25.188 I0 J0.319
G1 Y64.614
G3 X133.97 Y64.934 I-0.319 J0
G1 X32.249
G3 X31.93 Y64.614 I0 J-0.319
G1 Y25.188
G3 X32.249 Y24.868 I0.319 J0
G1 X81.394
G2 X82.567 Y24.086 I0 J-1.271
G3 X83.74 Y23.304 I1.173 J0.489
G1 X135.535
G3 X135.854 Y23.623 I0 J0.319
G1 Y66.179
G3 X135.535 Y66.498 I-0.319 J0
G1 X30.685
G3 X30.366 Y66.179 I0 J-0.319
G1 Y23.623
G3 X30.685 Y23.304 I0.319 J0
G1 X83.74
G2 X84.914 Y22.522 I0 J-1.271
G3 X86.087 Y21.739 I1.173 J0.489
G1 X137.099
G3 X137.418 Y22.059 I0 J0.319
G1 Y67.743
G3 X137.099 Y68.063 I-0.319 J0
G1 X29.121
G3 X28.801 Y67.743 I0 J-0.319
G1 Y22.059
G3 X29.121 Y21.739 I0.319 J0
G1 X86.087
G2 X87.26 Y20.957 I0 J-1.271
G3 X88.433 Y20.175 I1.173 J0.489
G1 X138.663
G3 X138.983 Y20.494 I0 J0.319
G1 Y69.308
G3 X138.663 Y69.627 I-0.319 J0
G1 X27.556
G3 X27.237 Y69.308 I0 J-0.319
G1 Y20.494
G3 X27.556 Y20.175 I0.319 J0
G1 X88.433
G2 X89.607 Y19.393 I0 J-1.271
G3 X90.78 Y18.611 I1.173 J0.489
G1 X140.228
G3 X140.547 Y18.93 I0 J0.319
G1 Y70.872
G3 X140.228 Y71.191 I-0.319 J0
G1 X25.992
G3 X25.672 Y70.872 I0 J-0.319
G1 Y18.93
G3 X25.992 Y18.611 I0.319 J0
G1 X90.78
G2 X91.953 Y17.828 I0 J-1.271
G3 X93.127 Y17.046 I1.173 J0.489
G1 X141.792
G3 X142.112 Y17.365 I0 J0.319
G1 Y72.437
G3 X141.792 Y72.756 I-0.319 J0
G1 X24.427
G3 X24.108 Y72.437 I0 J-0.319
G1 Y17.365
G3 X24.427 Y17.046 I0.319 J0
G1 X93.127
G2 X94.3 Y16.264 I0 J-1.271
G3 X95.473 Y15.482 I1.173 J0.489
G1 X143.357
G3 X143.676 Y15.801 I0 J0.319
G1 Y74.001
G3 X143.357 Y74.32 I-0.319 J0
G1 X22.863
G3 X22.544 Y74.001 I0 J-0.319
G1 Y15.801
G3 X22.863 Y15.482 I0.319 J0
G1 X95.473
G2 X96.647 Y14.699 I0 J-1.271
G3 X97.82 Y13.917 I1.173 J0.489
G1 X144.921
G3 X145.241 Y14.237 I0 J0.319
G1 Y75.565
G3 X144.921 Y75.885 I-0.319 J0
G1 X21.298
G3 X20.979 Y75.565 I0 J-0.319
G1 Y14.237
G3 X21.298 Y13.917 I0.319 J0
G1 X97.82
G2 X98.997 Y13.133 I0 J-1.275
G3 X100.174 Y12.348 I1.177 J0.49
G1 X146.81
Y77.454
X19.41
Y12.348
X100.174
X100.224 Y12.354 Z-4.487
X100.27 Y12.372 Z-4.473
X100.3 Y12.393 Z-4.437
X100.327 Y12.418 Z-4.4
X100.343 Y12.44 Z-4.3
G0 Z15

(Drill1)
X28.11 Y21.048
Z15
Z5
Z0
G1 Z-10 F333.3
G0 Z5
Y68.754
Z0
G1 Z-10 F333.3
G0 Z5
X138.11
Z0
G1 Z-10 F333.3
G0 Z5
Y21.048
Z0
G1 Z-10 F333.3
G0 Z5
Z15
M9
G28 G91 Z0
G90
G28 G91 X0 Y0
G90
M5
M30
