(1001)
(NixiTube)
(T1  D=2 CR=0 - ZMIN=-10 - flat end mill)
G90 G94
G17
G21

(Drill1)
T1 M6
S5000 M3
G54
M8
G0 X-21.048 Y28.11
Z1
G1 Z-10 F333.3
G0 Z1
X-68.754
G1 Z-10 F333.3
G0 Z1
Y138.11
G1 Z-10 F333.3
G0 Z1
X-21.048
G1 Z-10 F333.3
G0 Z1
M9
M5
M30
