(1001)
(NixiTube)
(T1  D=2 CR=0 - ZMIN=-10 - flat end mill)
G90 G94
G17
G21

(2D Pocket1)
T1 M6
S5000 M3
G54
G0 X-44.904 Y51.833
Z1
G1 Z0.3 F300
X-44.93 Y51.832 Z0.202 F333.3
X-45 Y51.828 Z0.129
X-45.096 Y51.813 Z0.1
G3 X-44.706 Y49.953 Z-0.004 I0.195 J-0.93
X-45.096 Y51.813 Z-0.108 I-0.195 J0.93
X-44.706 Y49.953 Z-0.213 I0.195 J-0.93
X-45.096 Y51.813 Z-0.317 I-0.195 J0.93
X-44.706 Y49.953 Z-0.421 I0.195 J-0.93
X-45.096 Y51.813 Z-0.525 I-0.195 J0.93
X-44.706 Y49.953 Z-0.63 I0.195 J-0.93
X-45.096 Y51.813 Z-0.734 I-0.195 J0.93
X-44.706 Y49.953 Z-0.838 I0.195 J-0.93
X-45.096 Y51.813 Z-0.942 I-0.195 J0.93
X-44.706 Y49.953 Z-1.046 I0.195 J-0.93
X-45.096 Y51.813 Z-1.151 I-0.195 J0.93
X-44.706 Y49.953 Z-1.255 I0.195 J-0.93
X-45.096 Y51.813 Z-1.359 I-0.195 J0.93
X-44.706 Y49.953 Z-1.463 I0.195 J-0.93
X-45.096 Y51.813 Z-1.568 I-0.195 J0.93
X-44.706 Y49.953 Z-1.672 I0.195 J-0.93
X-45.096 Y51.813 Z-1.776 I-0.195 J0.93
X-44.706 Y49.953 Z-1.88 I0.195 J-0.93
X-45.096 Y51.813 Z-1.984 I-0.195 J0.93
X-44.706 Y49.953 Z-2.089 I0.195 J-0.93
X-45.096 Y51.813 Z-2.193 I-0.195 J0.93
X-44.706 Y49.953 Z-2.297 I0.195 J-0.93
X-45.096 Y51.813 Z-2.401 I-0.195 J0.93
X-44.706 Y49.953 Z-2.506 I0.195 J-0.93
X-45.096 Y51.813 Z-2.61 I-0.195 J0.93
X-44.706 Y49.953 Z-2.714 I0.195 J-0.93
X-45.096 Y51.813 Z-2.818 I-0.195 J0.93
X-44.706 Y49.953 Z-2.922 I0.195 J-0.93
X-45.096 Y51.813 Z-3.027 I-0.195 J0.93
X-44.706 Y49.953 Z-3.131 I0.195 J-0.93
X-45.096 Y51.813 Z-3.235 I-0.195 J0.93
X-44.706 Y49.953 Z-3.339 I0.195 J-0.93
X-45.096 Y51.813 Z-3.444 I-0.195 J0.93
X-44.706 Y49.953 Z-3.548 I0.195 J-0.93
X-45.096 Y51.813 Z-3.652 I-0.195 J0.93
X-44.706 Y49.953 Z-3.756 I0.195 J-0.93
X-45.096 Y51.813 Z-3.86 I-0.195 J0.93
X-44.706 Y49.953 Z-3.965 I0.195 J-0.93
X-45.096 Y51.813 Z-4.069 I-0.195 J0.93
X-44.706 Y49.953 Z-4.173 I0.195 J-0.93
X-45.096 Y51.813 Z-4.277 I-0.195 J0.93
X-44.706 Y49.953 Z-4.382 I0.195 J-0.93
X-45.096 Y51.813 Z-4.486 I-0.195 J0.93
X-44.706 Y49.953 Z-4.59 I0.195 J-0.93
X-45.096 Y51.813 Z-4.694 I-0.195 J0.93
X-44.706 Y49.953 Z-4.798 I0.195 J-0.93
X-45.096 Y51.813 Z-4.903 I-0.195 J0.93
X-44.901 Y49.933 Z-5 I0.195 J-0.93
X-44.901 Y50.883 I0 J0.475
G2 X-44.901 Y51.833 I0 J0.475
G3 X-44.706 Y52.028 I0 J0.195 F300
G1 Y114.277
X-44.712 Y114.322
X-44.729 Y114.364
X-44.757 Y114.401
X-44.793 Y114.429
X-44.836 Y114.446
X-44.881 Y114.452
X-44.921
X-44.966 Y114.446
X-45.009 Y114.429
X-45.045 Y114.401
X-45.073 Y114.364
X-45.09 Y114.322
X-45.096 Y114.277
Y52.028
G3 X-44.901 Y51.833 I0.195 J0
G2 X-44.104 Y51.268 I0 J-0.845
G3 X-43.141 Y51.432 I0.467 J0.164
G1 Y115.697
G3 X-43.461 Y116.016 I-0.319 J0
G1 X-46.341
G3 X-46.661 Y115.697 I0 J-0.319
G1 Y50.523
G3 X-46.341 Y50.203 I0.319 J0
G1 X-43.461
G3 X-43.141 Y50.523 I0 J0.319
G1 Y51.432
G2 X-42.359 Y52.606 I1.271 J0
G3 X-41.577 Y53.779 I-0.489 J1.173
G1 Y117.261
G3 X-41.896 Y117.581 I-0.319 J0
G1 X-47.906
G3 X-48.225 Y117.261 I0 J-0.319
G1 Y48.958
G3 X-47.906 Y48.639 I0.319 J0
G1 X-41.896
G3 X-41.577 Y48.958 I0 J0.319
G1 Y53.779
G2 X-40.795 Y54.952 I1.271 J0
G3 X-40.013 Y56.126 I-0.489 J1.173
G1 Y118.826
G3 X-40.332 Y119.145 I-0.319 J0
G1 X-49.47
G3 X-49.789 Y118.826 I0 J-0.319
G1 Y47.394
G3 X-49.47 Y47.074 I0.319 J0
G1 X-40.332
G3 X-40.013 Y47.394 I0 J0.319
G1 Y56.126
G2 X-39.23 Y57.299 I1.271 J0
G3 X-38.448 Y58.472 I-0.489 J1.173
G1 Y120.39
G3 X-38.767 Y120.71 I-0.319 J0
G1 X-51.035
G3 X-51.354 Y120.39 I0 J-0.319
G1 Y45.829
G3 X-51.035 Y45.51 I0.319 J0
G1 X-38.767
G3 X-38.448 Y45.829 I0 J0.319
G1 Y58.472
G2 X-37.666 Y59.646 I1.271 J0
G3 X-36.884 Y60.819 I-0.489 J1.173
G1 Y121.955
G3 X-37.203 Y122.274 I-0.319 J0
G1 X-52.599
G3 X-52.918 Y121.955 I0 J-0.319
G1 Y44.265
G3 X-52.599 Y43.946 I0.319 J0
G1 X-37.203
G3 X-36.884 Y44.265 I0 J0.319
G1 Y60.819
G2 X-36.101 Y61.992 I1.271 J0
G3 X-35.319 Y63.166 I-0.489 J1.173
G1 Y123.519
G3 X-35.639 Y123.839 I-0.319 J0
G1 X-54.163
G3 X-54.483 Y123.519 I0 J-0.319
G1 Y42.7
G3 X-54.163 Y42.381 I0.319 J0
G1 X-35.639
G3 X-35.319 Y42.7 I0 J0.319
G1 Y63.166
G2 X-34.537 Y64.339 I1.271 J0
G3 X-33.755 Y65.512 I-0.489 J1.173
G1 Y125.084
G3 X-34.074 Y125.403 I-0.319 J0
G1 X-55.728
G3 X-56.047 Y125.084 I0 J-0.319
G1 Y41.136
G3 X-55.728 Y40.817 I0.319 J0
G1 X-34.074
G3 X-33.755 Y41.136 I0 J0.319
G1 Y65.512
G2 X-32.973 Y66.686 I1.271 J0
G3 X-32.19 Y67.859 I-0.489 J1.173
G1 Y126.648
G3 X-32.51 Y126.967 I-0.319 J0
G1 X-57.292
G3 X-57.612 Y126.648 I0 J-0.319
G1 Y39.572
G3 X-57.292 Y39.252 I0.319 J0
G1 X-32.51
G3 X-32.19 Y39.572 I0 J0.319
G1 Y67.859
G2 X-31.408 Y69.032 I1.271 J0
G3 X-30.626 Y70.206 I-0.489 J1.173
G1 Y128.212
G3 X-30.945 Y128.532 I-0.319 J0
G1 X-58.857
G3 X-59.176 Y128.212 I0 J-0.319
G1 Y38.007
G3 X-58.857 Y37.688 I0.319 J0
G1 X-30.945
G3 X-30.626 Y38.007 I0 J0.319
G1 Y70.206
G2 X-29.844 Y71.379 I1.271 J0
G3 X-29.062 Y72.552 I-0.489 J1.173
G1 Y129.777
G3 X-29.381 Y130.096 I-0.319 J0
G1 X-60.421
G3 X-60.74 Y129.777 I0 J-0.319
G1 Y36.443
G3 X-60.421 Y36.123 I0.319 J0
G1 X-29.381
G3 X-29.062 Y36.443 I0 J0.319
G1 Y72.552
G2 X-28.279 Y73.726 I1.271 J0
G3 X-27.497 Y74.899 I-0.489 J1.173
G1 Y131.341
G3 X-27.816 Y131.661 I-0.319 J0
G1 X-61.986
G3 X-62.305 Y131.341 I0 J-0.319
G1 Y34.878
G3 X-61.986 Y34.559 I0.319 J0
G1 X-27.816
G3 X-27.497 Y34.878 I0 J0.319
G1 Y74.899
G2 X-26.715 Y76.072 I1.271 J0
G3 X-25.933 Y77.246 I-0.489 J1.173
G1 Y132.906
G3 X-26.252 Y133.225 I-0.319 J0
G1 X-63.55
G3 X-63.869 Y132.906 I0 J-0.319
G1 Y33.314
G3 X-63.55 Y32.995 I0.319 J0
G1 X-26.252
G3 X-25.933 Y33.314 I0 J0.319
G1 Y77.246
G2 X-25.15 Y78.419 I1.271 J0
G3 X-24.368 Y79.592 I-0.489 J1.173
G1 Y134.47
G3 X-24.688 Y134.79 I-0.319 J0
G1 X-65.114
G3 X-65.434 Y134.47 I0 J-0.319
G1 Y31.749
G3 X-65.114 Y31.43 I0.319 J0
G1 X-24.688
G3 X-24.368 Y31.749 I0 J0.319
G1 Y79.592
G2 X-23.586 Y80.766 I1.271 J0
G3 X-22.804 Y81.939 I-0.489 J1.173
G1 Y136.035
G3 X-23.123 Y136.354 I-0.319 J0
G1 X-66.679
G3 X-66.998 Y136.035 I0 J-0.319
G1 Y30.185
G3 X-66.679 Y29.866 I0.319 J0
G1 X-23.123
G3 X-22.804 Y30.185 I0 J0.319
G1 Y81.939
G2 X-22.022 Y83.112 I1.271 J0
G3 X-21.239 Y84.285 I-0.489 J1.173
G1 Y137.599
G3 X-21.559 Y137.918 I-0.319 J0
G1 X-68.243
G3 X-68.563 Y137.599 I0 J-0.319
G1 Y28.621
G3 X-68.243 Y28.301 I0.319 J0
G1 X-21.559
G3 X-21.239 Y28.621 I0 J0.319
G1 Y84.285
G2 X-20.457 Y85.459 I1.271 J0
G3 X-19.675 Y86.632 I-0.489 J1.173
G1 Y139.163
G3 X-19.994 Y139.483 I-0.319 J0
G1 X-69.808
G3 X-70.127 Y139.163 I0 J-0.319
G1 Y27.056
G3 X-69.808 Y26.737 I0.319 J0
G1 X-19.994
G3 X-19.675 Y27.056 I0 J0.319
G1 Y86.632
G2 X-18.893 Y87.805 I1.271 J0
G3 X-18.111 Y88.979 I-0.489 J1.173
G1 Y140.728
G3 X-18.43 Y141.047 I-0.319 J0
G1 X-71.372
G3 X-71.691 Y140.728 I0 J-0.319
G1 Y25.492
G3 X-71.372 Y25.172 I0.319 J0
G1 X-18.43
G3 X-18.111 Y25.492 I0 J0.319
G1 Y88.979
G2 X-17.328 Y90.152 I1.271 J0
G3 X-16.546 Y91.325 I-0.489 J1.173
G1 Y142.292
G3 X-16.865 Y142.612 I-0.319 J0
G1 X-72.937
G3 X-73.256 Y142.292 I0 J-0.319
G1 Y23.927
G3 X-72.937 Y23.608 I0.319 J0
G1 X-16.865
G3 X-16.546 Y23.927 I0 J0.319
G1 Y91.325
G2 X-15.764 Y92.499 I1.271 J0
G3 X-14.982 Y93.672 I-0.489 J1.173
G1 Y143.857
G3 X-15.301 Y144.176 I-0.319 J0
G1 X-74.501
G3 X-74.82 Y143.857 I0 J-0.319
G1 Y22.363
G3 X-74.501 Y22.044 I0.319 J0
G1 X-15.301
G3 X-14.982 Y22.363 I0 J0.319
G1 Y93.672
G2 X-14.199 Y94.845 I1.271 J0
G3 X-13.417 Y96.019 I-0.489 J1.173
G1 Y145.421
G3 X-13.737 Y145.741 I-0.319 J0
G1 X-76.065
G3 X-76.385 Y145.421 I0 J-0.319
G1 Y20.798
G3 X-76.065 Y20.479 I0.319 J0
G1 X-13.737
G3 X-13.417 Y20.798 I0 J0.319
G1 Y96.019
G2 X-12.633 Y97.196 I1.275 J0
G3 X-11.848 Y98.373 I-0.49 J1.177
G1 Y147.31
X-77.954
Y18.91
X-11.848
Y98.373
Z1

(Drill1)
M8
G0 X-21.048 Y28.11
Z1
G1 Z-10 F333.3
G0 Z1
X-68.754
G1 Z-10 F333.3
G0 Z1
Y138.11
G1 Z-10 F333.3
G0 Z1
X-21.048
G1 Z-10 F333.3
G0 Z1
M9
M5
M30
