(1001)
(NixiTube)
(T1  D=2 CR=0 - ZMIN=-10 - flat end mill)
G90 G94
G17
G21
G28 G91 Z0
G90

(2D Pocket1)
T1 M6
S5000 M3
G54
G0 X51.833 Y44.904
Z1
G1 Z0.3 F300
X51.832 Y44.93 Z0.202 F333.3
X51.828 Y45 Z0.129
X51.813 Y45.096 Z0.1
G3 X49.953 Y44.706 Z-0.004 I-0.93 J-0.195
X51.813 Y45.096 Z-0.108 I0.93 J0.195
X49.953 Y44.706 Z-0.213 I-0.93 J-0.195
X51.813 Y45.096 Z-0.317 I0.93 J0.195
X49.953 Y44.706 Z-0.421 I-0.93 J-0.195
X51.813 Y45.096 Z-0.525 I0.93 J0.195
X49.953 Y44.706 Z-0.63 I-0.93 J-0.195
X51.813 Y45.096 Z-0.734 I0.93 J0.195
X49.953 Y44.706 Z-0.838 I-0.93 J-0.195
X51.813 Y45.096 Z-0.942 I0.93 J0.195
X49.953 Y44.706 Z-1.046 I-0.93 J-0.195
X51.813 Y45.096 Z-1.151 I0.93 J0.195
X49.953 Y44.706 Z-1.255 I-0.93 J-0.195
X51.813 Y45.096 Z-1.359 I0.93 J0.195
X49.953 Y44.706 Z-1.463 I-0.93 J-0.195
X51.813 Y45.096 Z-1.568 I0.93 J0.195
X49.953 Y44.706 Z-1.672 I-0.93 J-0.195
X51.813 Y45.096 Z-1.776 I0.93 J0.195
X49.953 Y44.706 Z-1.88 I-0.93 J-0.195
X51.813 Y45.096 Z-1.984 I0.93 J0.195
X49.953 Y44.706 Z-2.089 I-0.93 J-0.195
X51.813 Y45.096 Z-2.193 I0.93 J0.195
X49.953 Y44.706 Z-2.297 I-0.93 J-0.195
X51.813 Y45.096 Z-2.401 I0.93 J0.195
X49.953 Y44.706 Z-2.506 I-0.93 J-0.195
X51.813 Y45.096 Z-2.61 I0.93 J0.195
X49.953 Y44.706 Z-2.714 I-0.93 J-0.195
X51.813 Y45.096 Z-2.818 I0.93 J0.195
X49.953 Y44.706 Z-2.922 I-0.93 J-0.195
X51.813 Y45.096 Z-3.027 I0.93 J0.195
X49.953 Y44.706 Z-3.131 I-0.93 J-0.195
X51.813 Y45.096 Z-3.235 I0.93 J0.195
X49.953 Y44.706 Z-3.339 I-0.93 J-0.195
X51.813 Y45.096 Z-3.444 I0.93 J0.195
X49.953 Y44.706 Z-3.548 I-0.93 J-0.195
X51.813 Y45.096 Z-3.652 I0.93 J0.195
X49.953 Y44.706 Z-3.756 I-0.93 J-0.195
X51.813 Y45.096 Z-3.86 I0.93 J0.195
X49.953 Y44.706 Z-3.965 I-0.93 J-0.195
X51.813 Y45.096 Z-4.069 I0.93 J0.195
X49.953 Y44.706 Z-4.173 I-0.93 J-0.195
X51.813 Y45.096 Z-4.277 I0.93 J0.195
X49.953 Y44.706 Z-4.382 I-0.93 J-0.195
X51.813 Y45.096 Z-4.486 I0.93 J0.195
X49.953 Y44.706 Z-4.59 I-0.93 J-0.195
X51.813 Y45.096 Z-4.694 I0.93 J0.195
X49.953 Y44.706 Z-4.798 I-0.93 J-0.195
X51.813 Y45.096 Z-4.903 I0.93 J0.195
X49.933 Y44.901 Z-5 I-0.93 J-0.195
X50.883 Y44.901 I0.475 J0
G2 X51.833 Y44.901 I0.475 J0
G3 X52.028 Y44.706 I0.195 J0 F300
G1 X114.277
X114.322 Y44.712
X114.364 Y44.729
X114.401 Y44.757
X114.429 Y44.793
X114.446 Y44.836
X114.452 Y44.881
Y44.921
X114.446 Y44.966
X114.429 Y45.009
X114.401 Y45.045
X114.364 Y45.073
X114.322 Y45.09
X114.277 Y45.096
X52.028
G3 X51.833 Y44.901 I0 J-0.195
G2 X51.268 Y44.104 I-0.845 J0
G3 X51.432 Y43.141 I0.164 J-0.467
G1 X115.697
G3 X116.016 Y43.461 I0 J0.319
G1 Y46.341
G3 X115.697 Y46.661 I-0.319 J0
G1 X50.523
G3 X50.203 Y46.341 I0 J-0.319
G1 Y43.461
G3 X50.523 Y43.141 I0.319 J0
G1 X51.432
G2 X52.606 Y42.359 I0 J-1.271
G3 X53.779 Y41.577 I1.173 J0.489
G1 X117.261
G3 X117.581 Y41.896 I0 J0.319
G1 Y47.906
G3 X117.261 Y48.225 I-0.319 J0
G1 X48.958
G3 X48.639 Y47.906 I0 J-0.319
G1 Y41.896
G3 X48.958 Y41.577 I0.319 J0
G1 X53.779
G2 X54.952 Y40.795 I0 J-1.271
G3 X56.126 Y40.013 I1.173 J0.489
G1 X118.826
G3 X119.145 Y40.332 I0 J0.319
G1 Y49.47
G3 X118.826 Y49.789 I-0.319 J0
G1 X47.394
G3 X47.074 Y49.47 I0 J-0.319
G1 Y40.332
G3 X47.394 Y40.013 I0.319 J0
G1 X56.126
G2 X57.299 Y39.23 I0 J-1.271
G3 X58.472 Y38.448 I1.173 J0.489
G1 X120.39
G3 X120.71 Y38.767 I0 J0.319
G1 Y51.035
G3 X120.39 Y51.354 I-0.319 J0
G1 X45.829
G3 X45.51 Y51.035 I0 J-0.319
G1 Y38.767
G3 X45.829 Y38.448 I0.319 J0
G1 X58.472
G2 X59.646 Y37.666 I0 J-1.271
G3 X60.819 Y36.884 I1.173 J0.489
G1 X121.955
G3 X122.274 Y37.203 I0 J0.319
G1 Y52.599
G3 X121.955 Y52.918 I-0.319 J0
G1 X44.265
G3 X43.946 Y52.599 I0 J-0.319
G1 Y37.203
G3 X44.265 Y36.884 I0.319 J0
G1 X60.819
G2 X61.992 Y36.101 I0 J-1.271
G3 X63.166 Y35.319 I1.173 J0.489
G1 X123.519
G3 X123.839 Y35.639 I0 J0.319
G1 Y54.163
G3 X123.519 Y54.483 I-0.319 J0
G1 X42.7
G3 X42.381 Y54.163 I0 J-0.319
G1 Y35.639
G3 X42.7 Y35.319 I0.319 J0
G1 X63.166
G2 X64.339 Y34.537 I0 J-1.271
G3 X65.512 Y33.755 I1.173 J0.489
G1 X125.084
G3 X125.403 Y34.074 I0 J0.319
G1 Y55.728
G3 X125.084 Y56.047 I-0.319 J0
G1 X41.136
G3 X40.817 Y55.728 I0 J-0.319
G1 Y34.074
G3 X41.136 Y33.755 I0.319 J0
G1 X65.512
G2 X66.686 Y32.973 I0 J-1.271
G3 X67.859 Y32.19 I1.173 J0.489
G1 X126.648
G3 X126.967 Y32.51 I0 J0.319
G1 Y57.292
G3 X126.648 Y57.612 I-0.319 J0
G1 X39.572
G3 X39.252 Y57.292 I0 J-0.319
G1 Y32.51
G3 X39.572 Y32.19 I0.319 J0
G1 X67.859
G2 X69.032 Y31.408 I0 J-1.271
G3 X70.206 Y30.626 I1.173 J0.489
G1 X128.212
G3 X128.532 Y30.945 I0 J0.319
G1 Y58.857
G3 X128.212 Y59.176 I-0.319 J0
G1 X38.007
G3 X37.688 Y58.857 I0 J-0.319
G1 Y30.945
G3 X38.007 Y30.626 I0.319 J0
G1 X70.206
G2 X71.379 Y29.844 I0 J-1.271
G3 X72.552 Y29.062 I1.173 J0.489
G1 X129.777
G3 X130.096 Y29.381 I0 J0.319
G1 Y60.421
G3 X129.777 Y60.74 I-0.319 J0
G1 X36.443
G3 X36.123 Y60.421 I0 J-0.319
G1 Y29.381
G3 X36.443 Y29.062 I0.319 J0
G1 X72.552
G2 X73.726 Y28.279 I0 J-1.271
G3 X74.899 Y27.497 I1.173 J0.489
G1 X131.341
G3 X131.661 Y27.816 I0 J0.319
G1 Y61.986
G3 X131.341 Y62.305 I-0.319 J0
G1 X34.878
G3 X34.559 Y61.986 I0 J-0.319
G1 Y27.816
G3 X34.878 Y27.497 I0.319 J0
G1 X74.899
G2 X76.072 Y26.715 I0 J-1.271
G3 X77.246 Y25.933 I1.173 J0.489
G1 X132.906
G3 X133.225 Y26.252 I0 J0.319
G1 Y63.55
G3 X132.906 Y63.869 I-0.319 J0
G1 X33.314
G3 X32.995 Y63.55 I0 J-0.319
G1 Y26.252
G3 X33.314 Y25.933 I0.319 J0
G1 X77.246
G2 X78.419 Y25.15 I0 J-1.271
G3 X79.592 Y24.368 I1.173 J0.489
G1 X134.47
G3 X134.79 Y24.688 I0 J0.319
G1 Y65.114
G3 X134.47 Y65.434 I-0.319 J0
G1 X31.749
G3 X31.43 Y65.114 I0 J-0.319
G1 Y24.688
G3 X31.749 Y24.368 I0.319 J0
G1 X79.592
G2 X80.766 Y23.586 I0 J-1.271
G3 X81.939 Y22.804 I1.173 J0.489
G1 X136.035
G3 X136.354 Y23.123 I0 J0.319
G1 Y66.679
G3 X136.035 Y66.998 I-0.319 J0
G1 X30.185
G3 X29.866 Y66.679 I0 J-0.319
G1 Y23.123
G3 X30.185 Y22.804 I0.319 J0
G1 X81.939
G2 X83.112 Y22.022 I0 J-1.271
G3 X84.285 Y21.239 I1.173 J0.489
G1 X137.599
G3 X137.918 Y21.559 I0 J0.319
G1 Y68.243
G3 X137.599 Y68.563 I-0.319 J0
G1 X28.621
G3 X28.301 Y68.243 I0 J-0.319
G1 Y21.559
G3 X28.621 Y21.239 I0.319 J0
G1 X84.285
G2 X85.459 Y20.457 I0 J-1.271
G3 X86.632 Y19.675 I1.173 J0.489
G1 X139.163
G3 X139.483 Y19.994 I0 J0.319
G1 Y69.808
G3 X139.163 Y70.127 I-0.319 J0
G1 X27.056
G3 X26.737 Y69.808 I0 J-0.319
G1 Y19.994
G3 X27.056 Y19.675 I0.319 J0
G1 X86.632
G2 X87.805 Y18.893 I0 J-1.271
G3 X88.979 Y18.111 I1.173 J0.489
G1 X140.728
G3 X141.047 Y18.43 I0 J0.319
G1 Y71.372
G3 X140.728 Y71.691 I-0.319 J0
G1 X25.492
G3 X25.172 Y71.372 I0 J-0.319
G1 Y18.43
G3 X25.492 Y18.111 I0.319 J0
G1 X88.979
G2 X90.152 Y17.328 I0 J-1.271
G3 X91.325 Y16.546 I1.173 J0.489
G1 X142.292
G3 X142.612 Y16.865 I0 J0.319
G1 Y72.937
G3 X142.292 Y73.256 I-0.319 J0
G1 X23.927
G3 X23.608 Y72.937 I0 J-0.319
G1 Y16.865
G3 X23.927 Y16.546 I0.319 J0
G1 X91.325
G2 X92.499 Y15.764 I0 J-1.271
G3 X93.672 Y14.982 I1.173 J0.489
G1 X143.857
G3 X144.176 Y15.301 I0 J0.319
G1 Y74.501
G3 X143.857 Y74.82 I-0.319 J0
G1 X22.363
G3 X22.044 Y74.501 I0 J-0.319
G1 Y15.301
G3 X22.363 Y14.982 I0.319 J0
G1 X93.672
G2 X94.845 Y14.199 I0 J-1.271
G3 X96.019 Y13.417 I1.173 J0.489
G1 X145.421
G3 X145.741 Y13.737 I0 J0.319
G1 Y76.065
G3 X145.421 Y76.385 I-0.319 J0
G1 X20.798
G3 X20.479 Y76.065 I0 J-0.319
G1 Y13.737
G3 X20.798 Y13.417 I0.319 J0
G1 X96.019
G2 X97.196 Y12.633 I0 J-1.275
G3 X98.373 Y11.848 I1.177 J0.49
G1 X147.31
Y77.954
X18.91
Y11.848
X98.373
Z1

(Drill1)
M8
G0 X28.11 Y21.048
Z1
G1 Z-10 F333.3
G0 Z1
Y68.754
G1 Z-10 F333.3
G0 Z1
X138.11
G1 Z-10 F333.3
G0 Z1
Y21.048
G1 Z-10 F333.3
G0 Z1
M9
G28 G91 Z0
G90
G28 G91 X0 Y0
G90
M5
M30
