(Block-name: Header)
(Block-expand: 0)
(Block-enable: 1)
(1001)
(NixiTube)
(T1  D=2 CR=0 - ZMIN=-10 - flat end mill)
G90 G94
G17
G21

(2D Pocket1)
T1 M6
S5000 M3
G54
(Block-name: block)
(Block-expand: 0)
(Block-enable: 1)
G0 X33.2682 Y96.8515
Z1
(Block-name: block)
(Block-expand: 0)
(Block-enable: 1)
G1 Z0.3 F300
X33.2942 Y96.8525 Z0.202 F333.3
X33.3642 Y96.8565 Z0.129
X33.4602 Y96.8715 Z0.1
G3 X33.0702 Y98.7315 Z-0.004 I-0.195 J0.93
X33.4602 Y96.8715 Z-0.108 I0.195 J-0.93
X33.0702 Y98.7315 Z-0.213 I-0.195 J0.93
X33.4602 Y96.8715 Z-0.317 I0.195 J-0.93
X33.0702 Y98.7315 Z-0.421 I-0.195 J0.93
X33.4602 Y96.8715 Z-0.525 I0.195 J-0.93
X33.0702 Y98.7315 Z-0.63 I-0.195 J0.93
X33.4602 Y96.8715 Z-0.734 I0.195 J-0.93
X33.0702 Y98.7315 Z-0.838 I-0.195 J0.93
X33.4602 Y96.8715 Z-0.942 I0.195 J-0.93
X33.0702 Y98.7315 Z-1.046 I-0.195 J0.93
X33.4602 Y96.8715 Z-1.151 I0.195 J-0.93
X33.0702 Y98.7315 Z-1.255 I-0.195 J0.93
X33.4602 Y96.8715 Z-1.359 I0.195 J-0.93
X33.0702 Y98.7315 Z-1.463 I-0.195 J0.93
X33.4602 Y96.8715 Z-1.568 I0.195 J-0.93
X33.0702 Y98.7315 Z-1.672 I-0.195 J0.93
X33.4602 Y96.8715 Z-1.776 I0.195 J-0.93
X33.0702 Y98.7315 Z-1.88 I-0.195 J0.93
X33.4602 Y96.8715 Z-1.984 I0.195 J-0.93
X33.0702 Y98.7315 Z-2.089 I-0.195 J0.93
X33.4602 Y96.8715 Z-2.193 I0.195 J-0.93
X33.0702 Y98.7315 Z-2.297 I-0.195 J0.93
X33.4602 Y96.8715 Z-2.401 I0.195 J-0.93
X33.0702 Y98.7315 Z-2.506 I-0.195 J0.93
X33.4602 Y96.8715 Z-2.61 I0.195 J-0.93
X33.0702 Y98.7315 Z-2.714 I-0.195 J0.93
X33.4602 Y96.8715 Z-2.818 I0.195 J-0.93
X33.0702 Y98.7315 Z-2.922 I-0.195 J0.93
X33.4602 Y96.8715 Z-3.027 I0.195 J-0.93
X33.0702 Y98.7315 Z-3.131 I-0.195 J0.93
X33.4602 Y96.8715 Z-3.235 I0.195 J-0.93
X33.0702 Y98.7315 Z-3.339 I-0.195 J0.93
X33.4602 Y96.8715 Z-3.444 I0.195 J-0.93
X33.0702 Y98.7315 Z-3.548 I-0.195 J0.93
X33.4602 Y96.8715 Z-3.652 I0.195 J-0.93
X33.0702 Y98.7315 Z-3.756 I-0.195 J0.93
X33.4602 Y96.8715 Z-3.86 I0.195 J-0.93
X33.0702 Y98.7315 Z-3.965 I-0.195 J0.93
X33.4602 Y96.8715 Z-4.069 I0.195 J-0.93
X33.0702 Y98.7315 Z-4.173 I-0.195 J0.93
X33.4602 Y96.8715 Z-4.277 I0.195 J-0.93
X33.0702 Y98.7315 Z-4.382 I-0.195 J0.93
X33.4602 Y96.8715 Z-4.486 I0.195 J-0.93
X33.0702 Y98.7315 Z-4.59 I-0.195 J0.93
X33.4602 Y96.8715 Z-4.694 I0.195 J-0.93
X33.0702 Y98.7315 Z-4.798 I-0.195 J0.93
X33.4602 Y96.8715 Z-4.903 I0.195 J-0.93
X33.2652 Y98.7515 Z-5 I-0.195 J0.93
X33.2652 Y97.8015 I-0 J-0.475
G2 X33.2652 Y96.8515 I-0 J-0.475
G3 X33.0702 Y96.6565 I-0 J-0.195 F300
G1 X33.0702 Y34.4075
X33.0762 Y34.3625
X33.0932 Y34.3205
X33.1212 Y34.2835
X33.1572 Y34.2555
X33.2002 Y34.2385
X33.2452 Y34.2325
Y34.2325 X33.2852
X33.3302 Y34.2385
X33.3732 Y34.2555
X33.4092 Y34.2835
X33.4372 Y34.3205
X33.4542 Y34.3625
X33.4602 Y34.4075
X33.4602 Y96.6565
G3 X33.2652 Y96.8515 I-0.195 J0
G2 X32.4682 Y97.4165 I0 J0.845
G3 X31.5052 Y97.2525 I-0.467 J-0.164
G1 X31.5052 Y32.9875
G3 X31.8252 Y32.6685 I0.319 J-0
G1 Y32.6685 X34.7052
G3 X35.0252 Y32.9875 I0 J0.319
G1 X35.0252 Y98.1615
G3 X34.7052 Y98.4815 I-0.319 J0
G1 Y98.4815 X31.8252
G3 X31.5052 Y98.1615 I-0 J-0.319
G1 X31.5052 Y97.2525
G2 X30.7232 Y96.0785 I-1.271 J0
G3 X29.9412 Y94.9055 I0.489 J-1.173
G1 X29.9412 Y31.4235
G3 X30.2602 Y31.1035 I0.319 J-0
G1 Y31.1035 X36.2702
G3 X36.5892 Y31.4235 I0 J0.319
G1 X36.5892 Y99.7265
G3 X36.2702 Y100.0455 I-0.319 J0
G1 Y100.0455 X30.2602
G3 X29.9412 Y99.7265 I-0 J-0.319
G1 X29.9412 Y94.9055
G2 X29.1592 Y93.7325 I-1.271 J0
G3 X28.3772 Y92.5585 I0.489 J-1.173
G1 X28.3772 Y29.8585
G3 X28.6962 Y29.5395 I0.319 J-0
G1 Y29.5395 X37.8342
G3 X38.1532 Y29.8585 I0 J0.319
G1 X38.1532 Y101.2905
G3 X37.8342 Y101.6105 I-0.319 J0
G1 Y101.6105 X28.6962
G3 X28.3772 Y101.2905 I-0 J-0.319
G1 X28.3772 Y92.5585
G2 X27.5942 Y91.3855 I-1.271 J0
G3 X26.8122 Y90.2125 I0.489 J-1.173
G1 X26.8122 Y28.2945
G3 X27.1312 Y27.9745 I0.319 J-0
G1 Y27.9745 X39.3992
G3 X39.7182 Y28.2945 I0 J0.319
G1 X39.7182 Y102.8555
G3 X39.3992 Y103.1745 I-0.319 J0
G1 Y103.1745 X27.1312
G3 X26.8122 Y102.8555 I-0 J-0.319
G1 X26.8122 Y90.2125
G2 X26.0302 Y89.0385 I-1.271 J0
G3 X25.2482 Y87.8655 I0.489 J-1.173
G1 X25.2482 Y26.7295
G3 X25.5672 Y26.4105 I0.319 J-0
G1 Y26.4105 X40.9632
G3 X41.2822 Y26.7295 I0 J0.319
G1 X41.2822 Y104.4195
G3 X40.9632 Y104.7385 I-0.319 J0
G1 Y104.7385 X25.5672
G3 X25.2482 Y104.4195 I-0 J-0.319
G1 X25.2482 Y87.8655
G2 X24.4652 Y86.6925 I-1.271 J0
G3 X23.6832 Y85.5185 I0.489 J-1.173
G1 X23.6832 Y25.1655
G3 X24.0032 Y24.8455 I0.319 J-0
G1 Y24.8455 X42.5272
G3 X42.8472 Y25.1655 I0 J0.319
G1 X42.8472 Y105.9845
G3 X42.5272 Y106.3035 I-0.319 J0
G1 Y106.3035 X24.0032
G3 X23.6832 Y105.9845 I-0 J-0.319
G1 X23.6832 Y85.5185
G2 X22.9012 Y84.3455 I-1.271 J0
G3 X22.1192 Y83.1725 I0.489 J-1.173
G1 X22.1192 Y23.6005
G3 X22.4382 Y23.2815 I0.319 J-0
G1 Y23.2815 X44.0922
G3 X44.4112 Y23.6005 I0 J0.319
G1 X44.4112 Y107.5485
G3 X44.0922 Y107.8675 I-0.319 J0
G1 Y107.8675 X22.4382
G3 X22.1192 Y107.5485 I-0 J-0.319
G1 X22.1192 Y83.1725
G2 X21.3372 Y81.9985 I-1.271 J0
G3 X20.5542 Y80.8255 I0.489 J-1.173
G1 X20.5542 Y22.0365
G3 X20.8742 Y21.7175 I0.319 J-0
G1 Y21.7175 X45.6562
G3 X45.9762 Y22.0365 I0 J0.319
G1 X45.9762 Y109.1125
G3 X45.6562 Y109.4325 I-0.319 J0
G1 Y109.4325 X20.8742
G3 X20.5542 Y109.1125 I-0 J-0.319
G1 X20.5542 Y80.8255
G2 X19.7722 Y79.6525 I-1.271 J0
G3 X18.9902 Y78.4785 I0.489 J-1.173
G1 X18.9902 Y20.4725
G3 X19.3092 Y20.1525 I0.319 J-0
G1 Y20.1525 X47.2212
G3 X47.5402 Y20.4725 I0 J0.319
G1 X47.5402 Y110.6775
G3 X47.2212 Y110.9965 I-0.319 J0
G1 Y110.9965 X19.3092
G3 X18.9902 Y110.6775 I-0 J-0.319
G1 X18.9902 Y78.4785
G2 X18.2082 Y77.3055 I-1.271 J0
G3 X17.4262 Y76.1325 I0.489 J-1.173
G1 X17.4262 Y18.9075
G3 X17.7452 Y18.5885 I0.319 J-0
G1 Y18.5885 X48.7852
G3 X49.1042 Y18.9075 I0 J0.319
G1 X49.1042 Y112.2415
G3 X48.7852 Y112.5615 I-0.319 J0
G1 Y112.5615 X17.7452
G3 X17.4262 Y112.2415 I-0 J-0.319
G1 X17.4262 Y76.1325
G2 X16.6432 Y74.9585 I-1.271 J0
G3 X15.8612 Y73.7855 I0.489 J-1.173
G1 X15.8612 Y17.3435
G3 X16.1802 Y17.0235 I0.319 J-0
G1 Y17.0235 X50.3502
G3 X50.6692 Y17.3435 I0 J0.319
G1 X50.6692 Y113.8065
G3 X50.3502 Y114.1255 I-0.319 J0
G1 Y114.1255 X16.1802
G3 X15.8612 Y113.8065 I-0 J-0.319
G1 X15.8612 Y73.7855
G2 X15.0792 Y72.6125 I-1.271 J0
G3 X14.2972 Y71.4385 I0.489 J-1.173
G1 X14.2972 Y15.7785
G3 X14.6162 Y15.4595 I0.319 J-0
G1 Y15.4595 X51.9142
G3 X52.2332 Y15.7785 I0 J0.319
G1 X52.2332 Y115.3705
G3 X51.9142 Y115.6895 I-0.319 J0
G1 Y115.6895 X14.6162
G3 X14.2972 Y115.3705 I-0 J-0.319
G1 X14.2972 Y71.4385
G2 X13.5142 Y70.2655 I-1.271 J0
G3 X12.7322 Y69.0925 I0.489 J-1.173
G1 X12.7322 Y14.2145
G3 X13.0522 Y13.8945 I0.319 J-0
G1 Y13.8945 X53.4782
G3 X53.7982 Y14.2145 I0 J0.319
G1 X53.7982 Y116.9355
G3 X53.4782 Y117.2545 I-0.319 J0
G1 Y117.2545 X13.0522
G3 X12.7322 Y116.9355 I-0 J-0.319
G1 X12.7322 Y69.0925
G2 X11.9502 Y67.9185 I-1.271 J0
G3 X11.1682 Y66.7455 I0.489 J-1.173
G1 X11.1682 Y12.6495
G3 X11.4872 Y12.3305 I0.319 J-0
G1 Y12.3305 X55.0432
G3 X55.3622 Y12.6495 I0 J0.319
G1 X55.3622 Y118.4995
G3 X55.0432 Y118.8185 I-0.319 J0
G1 Y118.8185 X11.4872
G3 X11.1682 Y118.4995 I-0 J-0.319
G1 X11.1682 Y66.7455
G2 X10.3862 Y65.5725 I-1.271 J0
G3 X9.6032 Y64.3995 I0.489 J-1.173
G1 X9.6032 Y11.0855
G3 X9.9232 Y10.7665 I0.319 J-0
G1 Y10.7665 X56.6072
G3 X56.9272 Y11.0855 I0 J0.319
G1 X56.9272 Y120.0635
G3 X56.6072 Y120.3835 I-0.319 J0
G1 Y120.3835 X9.9232
G3 X9.6032 Y120.0635 I-0 J-0.319
G1 X9.6032 Y64.3995
G2 X8.8212 Y63.2255 I-1.271 J0
G3 X8.0392 Y62.0525 I0.489 J-1.173
G1 X8.0392 Y9.5215
G3 X8.3582 Y9.2015 I0.319 J-0
G1 Y9.2015 X58.1722
G3 X58.4912 Y9.5215 I0 J0.319
G1 X58.4912 Y121.6285
G3 X58.1722 Y121.9475 I-0.319 J0
G1 Y121.9475 X8.3582
G3 X8.0392 Y121.6285 I-0 J-0.319
G1 X8.0392 Y62.0525
G2 X7.2572 Y60.8795 I-1.271 J0
G3 X6.4752 Y59.7055 I0.489 J-1.173
G1 X6.4752 Y7.9565
G3 X6.7942 Y7.6375 I0.319 J-0
G1 Y7.6375 X59.7362
G3 X60.0552 Y7.9565 I0 J0.319
G1 X60.0552 Y123.1925
G3 X59.7362 Y123.5125 I-0.319 J0
G1 Y123.5125 X6.7942
G3 X6.4752 Y123.1925 I-0 J-0.319
G1 X6.4752 Y59.7055
G2 X5.6922 Y58.5325 I-1.271 J0
G3 X4.9102 Y57.3595 I0.489 J-1.173
G1 X4.9102 Y6.3925
G3 X5.2292 Y6.0725 I0.319 J-0
G1 Y6.0725 X61.3012
G3 X61.6202 Y6.3925 I0 J0.319
G1 X61.6202 Y124.7575
G3 X61.3012 Y125.0765 I-0.319 J0
G1 Y125.0765 X5.2292
G3 X4.9102 Y124.7575 I-0 J-0.319
G1 X4.9102 Y57.3595
G2 X4.1282 Y56.1855 I-1.271 J0
G3 X3.3462 Y55.0125 I0.489 J-1.173
G1 X3.3462 Y4.8275
G3 X3.6652 Y4.5085 I0.319 J-0
G1 Y4.5085 X62.8652
G3 X63.1842 Y4.8275 I0 J0.319
G1 X63.1842 Y126.3215
G3 X62.8652 Y126.6405 I-0.319 J0
G1 Y126.6405 X3.6652
G3 X3.3462 Y126.3215 I-0 J-0.319
G1 X3.3462 Y55.0125
G2 X2.5632 Y53.8395 I-1.271 J0
G3 X1.7812 Y52.6655 I0.489 J-1.173
G1 X1.7812 Y3.2635
G3 X2.1012 Y2.9435 I0.319 J-0
G1 Y2.9435 X64.4292
G3 X64.7492 Y3.2635 I0 J0.319
G1 X64.7492 Y127.8865
G3 X64.4292 Y128.2055 I-0.319 J0
G1 Y128.2055 X2.1012
G3 X1.7812 Y127.8865 I-0 J-0.319
G1 X1.7812 Y52.6655
G2 X0.9972 Y51.4885 I-1.275 J0
G3 X0.2122 Y50.3115 I0.49 J-1.177
G1 X0.2122 Y1.3745
Y1.3745 X66.3182
X66.3182 Y129.7745
Y129.7745 X0.2122
X0.2122 Y50.3115
Z1

(Drill1)
M8
G0 X9.4122 Y120.5745
Z1
G1 Z-10 F333.3
G0 Z1
(Block-name: block)
(Block-expand: 0)
(Block-enable: 1)
Y120.5745 X57.1182
G1 Z-10 F333.3
G0 Z1
(Block-name: block)
(Block-expand: 0)
(Block-enable: 1)
X57.1182 Y10.5745
G1 Z-10 F333.3
G0 Z1
(Block-name: block)
(Block-expand: 0)
(Block-enable: 1)
Y10.5745 X9.4122
G1 Z-10 F333.3
G0 Z1
(Block-name: block)
(Block-expand: 0)
(Block-enable: 1)
M9
M5
M30
